src/assets/icons/tech/Google Analytics.svg

<?xml version="1.0" encoding="UTF-8"?>
<svg width="284px" height="284px" viewBox="-14 0 284 284" version="1.1" xmlns="http://www.w3.org/2000/svg" xmlns:xlink="http://www.w3.org/1999/xlink" preserveAspectRatio="xMidYMid">
    <g>
        <path d="M256.003159,247.933017 C256.055907,258.030289 251.77298,267.664804 244.241349,274.390297 C236.709718,281.11579 226.653817,284.285366 216.626905,283.094249 C198.58347,280.424364 185.360959,264.722632 185.800619,246.488035 L185.800619,36.8452103 C185.364944,18.5907614 198.619678,2.88144681 216.687112,0.238996295 C226.704325,-0.933476157 236.743571,2.24455542 244.261279,8.9678962 C251.778988,15.691237 256.053811,25.3147619 256.003159,35.4002282 L256.003159,247.933017 Z" fill="#F9AB00"></path>
        <path d="M35.1010243,213.193238 C54.4867848,213.193238 70.2020487,228.908502 70.2020487,248.294263 C70.2020487,267.680023 54.4867848,283.395287 35.1010243,283.395287 C15.7152639,283.395287 0,267.680023 0,248.294263 C0,228.908502 15.7152639,213.193238 35.1010243,213.193238 Z M127.459466,106.806429 C107.981896,107.874068 92.8698765,124.212107 93.3217628,143.713681 L93.3217628,237.998765 C93.3217628,263.58699 104.580582,279.120548 121.077461,282.431965 C131.434034,284.530959 142.185473,281.860819 150.356699,275.160414 C158.527925,268.460009 163.252393,258.439904 163.222912,247.872809 L163.222912,142.088076 C163.240039,132.641687 159.462041,123.584285 152.737293,116.950107 C146.012546,110.315928 136.904752,106.661084 127.459466,106.806429 L127.459466,106.806429 Z" fill="#E37400"></path>
    </g>
</svg>

<svg width="284" height="284" viewBox="-14 0 284 284" xmlns="http://www.w3.org/2000/svg" preserveAspectRatio="xMidYMid">
    <path d="M256.003 247.933a35.224 35.224 0 0 1-39.376 35.161c-18.044-2.67-31.266-18.371-30.826-36.606V36.845C185.365 18.591 198.62 2.881 216.687.24a35.221 35.221 0 0 1 39.316 35.16v212.533Z" fill="#F9AB00"/>
    <path d="M35.101 213.193c19.386 0 35.101 15.716 35.101 35.101 0 19.386-15.715 35.101-35.101 35.101S0 267.68 0 248.295c0-19.386 15.715-35.102 35.101-35.102Zm92.358-106.387c-19.477 1.068-34.59 17.406-34.137 36.908v94.285c0 25.588 11.259 41.122 27.755 44.433a35.161 35.161 0 0 0 42.146-34.56V142.089a35.222 35.222 0 0 0-35.764-35.282Z" fill="#E37400"/>
</svg>
